src/status/symbolic/mail-read-symbolic.svg

<?xml version="1.0" encoding="UTF-8"?>
<svg width="16" height="16" version="1.1" xmlns="http://www.w3.org/2000/svg">
 <path d="m8 0c-0.62438 0-1.2478 0.19026-1.7168 0.57031l-6.2832 5.0918v7.3379c0 0.20559 0.030788 0.40344 0.087891 0.58984 4.2677e-4 0.001393 0.0015234 0.002514 0.0019531 0.003906v0.001953c0.018784 0.060636 0.040232 0.11978 0.064453 0.17774 7.9239e-4 0.001896 0.0011551 0.003966 0.0019531 0.005859 0.024397 0.057872 0.0525 0.11502 0.082031 0.16992 0.33701 0.62649 0.99779 1.0508 1.7617 1.0508h12c0.62578 0 1.1826-0.28515 1.5488-0.73242 0.039086-0.04774 0.076788-0.097153 0.11133-0.14844 8.14e-4 -0.001206 0.003096-0.004652 0.003906-0.00586 0.003906-0.005843 0.007874-0.011691 0.011719-0.017578 0.066562-0.10176 0.12256-0.21059 0.16992-0.32422 0.023955-0.057563 0.045811-0.11559 0.064453-0.17578 0.058263-0.18811 0.089844-0.38795 0.089844-0.5957v-7.3399l-6.2812-5.0898c-0.46904-0.38005-1.0944-0.57031-1.7188-0.57031zm0 0.89258c0.33702 0 0.6734 0.10521 0.93164 0.31445l5.916 4.793-5.916 4.793c-0.25824 0.20925-0.59462 0.31445-0.93164 0.31445s-0.6734-0.10521-0.93164-0.31445l-5.916-4.793 5.916-4.793c0.25824-0.20925 0.59462-0.31445 0.93164-0.31445zm-7 6.2559 3.5195 2.8516-3.5195 2.8516v-5.7031zm14 0.0019531v5.6992l-3.5176-2.8496 3.5176-2.8496zm-9.6953 3.4863 0.97852 0.79297c0.46904 0.38005 1.0924 0.57031 1.7168 0.57031s1.2497-0.19026 1.7188-0.57031l0.97852-0.79297 3.9023 3.1621c-0.16702 0.12527-0.37384 0.20117-0.59961 0.20117h-12c-0.22577 0-0.43259-0.075906-0.59961-0.20117l3.9043-3.1621z" fill="#363636" style="paint-order:stroke fill markers"/>
</svg>

<svg xmlns="http://www.w3.org/2000/svg" width="16" height="16">
    <path fill="#050505" d="M8 0c-.624 0-1.248.19-1.717.57L0 5.662V13c0 .206.03.403.088.59l.002.004v.002c.019.06.04.12.064.177l.002.006A2.007 2.007 0 0 0 2 15h12a1.995 1.995 0 0 0 1.66-.88l.004-.007.012-.017a1.988 1.988 0 0 0 .234-.5A2.01 2.01 0 0 0 16 13V5.66L9.719.57C9.249.19 8.624 0 8 0zm0 .893c.337 0 .673.105.932.314L14.848 6l-5.916 4.793c-.259.21-.595.314-.932.314s-.673-.105-.932-.314L1.152 6l5.916-4.793c.259-.21.595-.314.932-.314zM1 7.148 4.52 10 1 12.852V7.149zm14 .002v5.7L11.482 10 15 7.15zm-9.695 3.487.978.793c.47.38 1.093.57 1.717.57s1.25-.19 1.719-.57l.978-.793 3.903 3.162A.995.995 0 0 1 14 14H2a.996.996 0 0 1-.6-.201l3.905-3.162z" opacity=".7" style="paint-order:stroke fill markers"/>
</svg>
